svg/mcv4u/discontinuities.svg

<svg xmlns="http://www.w3.org/2000/svg" viewBox="0 0 486.208 359.496" xml:space="preserve"><path fill="none" stroke="#CCC" stroke-miterlimit="10" d="M420.5 32v301M370.5 32v301M320.5 32v301M270.5 32v301M220.5 32v301M170.5 32v301M120.5 32v301M70.5 32v301M471 82.5H20M471 132.5H20M471 182.5H20M471 232.5H20M471 282.5H20"/><path fill="none" stroke="#000" stroke-miterlimit="10" d="M465 332.5H20.5V38"/><path fill="#000" d="m461.743 328.469 1.573 3.703-1.573 3.703 8.778-3.703zM23.724 40.45l-3.703-1.573-3.703 1.573 3.703-8.778z"/><text transform="translate(475.132 337.972)" font-family="'Equity Text B'" font-style="italic" font-size="24">x</text><text transform="translate(6.133 20.472)"><tspan x="0" y="0" font-family="'Equity Text B'" font-style="italic" font-size="24" letter-spacing="2">f</tspan><tspan x="9.384" y="0" font-family="'Equity Text B'" font-size="24">(</tspan><tspan x="17.231" y="0" font-family="'Equity Text B'" font-style="italic" font-size="24">x</tspan><tspan x="27.815" y="0" font-family="'Equity Text B'" font-size="24">)</tspan></text><path fill="none" stroke="#000" stroke-miterlimit="10" d="M15 82.5h5M15 132.5h5M15 182.5h5M15 232.5h5M15 282.5h5M420.5 333v5M370.5 333v5M320.5 333v5M270.5 333v5M220.5 333v5M170.5 333v5M120.5 333v5M70.5 333v5"/><text transform="translate(66.227 355.817)" font-family="'Concourse T3'" font-size="16">1</text><text transform="translate(1.6 287.746)" font-family="'Concourse T3'" font-size="16">1</text><text transform="translate(.16 237.746)" font-family="'Concourse T3'" font-size="16">2</text><text transform="translate(.48 187.746)" font-family="'Concourse T3'" font-size="16">3</text><text transform="translate(0 137.746)" font-family="'Concourse T3'" font-size="16">4</text><text transform="translate(.16 87.746)" font-family="'Concourse T3'" font-size="16">5</text><text transform="translate(116.027 355.817)" font-family="'Concourse T3'" font-size="16">2</text><text transform="translate(165.527 355.817)" font-family="'Concourse T3'" font-size="16">3</text><text transform="translate(215.227 355.817)" font-family="'Concourse T3'" font-size="16">4</text><text transform="translate(265.527 355.817)" font-family="'Concourse T3'" font-size="16">5</text><text transform="translate(315.606 355.817)" font-family="'Concourse T3'" font-size="16">6</text><text transform="translate(365.786 355.817)" font-family="'Concourse T3'" font-size="16">7</text><text transform="translate(415.766 355.817)" font-family="'Concourse T3'" font-size="16">8</text><path fill="none" stroke="#000" stroke-width="2" stroke-miterlimit="10" d="M21.021 232.667S33.494 108.209 120.333 132c48.667 13.333 100 50.172 100 50.172"/><circle fill="#FFF" stroke="#000" stroke-miterlimit="10" cx="120.57" cy="132.412" r="4"/><circle fill="#000" cx="220.47" cy="182.512" r="4"/><path fill="none" stroke="#000" stroke-width="2" stroke-miterlimit="10" d="M220.333 232.667S299.5 233.5 334.5 191.5c30.274-36.329 33.08-129.393 33.285-153.861"/><path fill="#000" d="m371.451 40.466-3.696-1.589-3.71 1.557 3.741-8.762z"/><circle fill="#FFF" stroke="#000" stroke-miterlimit="10" cx="220.57" cy="232.512" r="4"/><path fill="none" stroke="#000" stroke-width="2" stroke-miterlimit="10" d="M373.706 326.209c1.223-32.117 11.511-181.664 96.815-143.697"/><path fill="#000" d="m377.517 323.513-3.75 1.457-3.653-1.687 3.429 8.889z"/><g fill="none" stroke="#000" stroke-miterlimit="10"><path d="M370.5 32v3"/><path stroke-dasharray="6,6" d="M370.5 41v286"/><path d="M370.5 330v3"/></g><text transform="translate(94.26 119.63)" font-family="'Concourse T3'" font-size="24">hole</text><text transform="translate(201.109 214.196)" font-family="'Concourse T3'" font-size="24">jump</text><text transform="rotate(-90 302.617 -87.28)" font-family="'Concourse T3'" font-size="24">asymptote</text></svg>

<svg xmlns="http://www.w3.org/2000/svg" viewBox="0 0 486.208 359.496" xml:space="preserve"><path fill="none" stroke="#CCC" stroke-miterlimit="10" d="M420.5 32v301m-50-301v301m-50-301v301m-50-301v301m-50-301v301m-50-301v301m-50-301v301m-50-301v301M471 82.5H20m451 50H20m451 50H20m451 50H20m451 50H20"/><path fill="none" stroke="#000" stroke-miterlimit="10" d="M465 332.5H20.5V38"/><path d="m461.743 328.469 1.573 3.703-1.573 3.703 8.778-3.703zM23.724 40.45l-3.703-1.573-3.703 1.573 3.703-8.778z"/><text transform="translate(475.132 337.972)" font-family="'Equity Text B'" font-style="italic" font-size="24">x</text><text transform="translate(6.133 20.472)"><tspan x="0" y="0" font-family="'Equity Text B'" font-style="italic" font-size="24" letter-spacing="2">f</tspan><tspan x="9.384" y="0" font-family="'Equity Text B'" font-size="24">(</tspan><tspan x="17.231" y="0" font-family="'Equity Text B'" font-style="italic" font-size="24">x</tspan><tspan x="27.815" y="0" font-family="'Equity Text B'" font-size="24">)</tspan></text><path fill="none" stroke="#000" stroke-miterlimit="10" d="M15 82.5h5m-5 50h5m-5 50h5m-5 50h5m-5 50h5M420.5 333v5m-50-5v5m-50-5v5m-50-5v5m-50-5v5m-50-5v5m-50-5v5m-50-5v5"/><text transform="translate(66.227 355.817)" font-family="'Concourse T3'" font-size="16">1</text><text transform="translate(1.6 287.746)" font-family="'Concourse T3'" font-size="16">1</text><text transform="translate(.16 237.746)" font-family="'Concourse T3'" font-size="16">2</text><text transform="translate(.48 187.746)" font-family="'Concourse T3'" font-size="16">3</text><text transform="translate(0 137.746)" font-family="'Concourse T3'" font-size="16">4</text><text transform="translate(.16 87.746)" font-family="'Concourse T3'" font-size="16">5</text><text transform="translate(116.027 355.817)" font-family="'Concourse T3'" font-size="16">2</text><text transform="translate(165.527 355.817)" font-family="'Concourse T3'" font-size="16">3</text><text transform="translate(215.227 355.817)" font-family="'Concourse T3'" font-size="16">4</text><text transform="translate(265.527 355.817)" font-family="'Concourse T3'" font-size="16">5</text><text transform="translate(315.606 355.817)" font-family="'Concourse T3'" font-size="16">6</text><text transform="translate(365.786 355.817)" font-family="'Concourse T3'" font-size="16">7</text><text transform="translate(415.766 355.817)" font-family="'Concourse T3'" font-size="16">8</text><path fill="none" stroke="#000" stroke-width="2" stroke-miterlimit="10" d="M21.021 232.667S33.494 108.209 120.333 132c48.667 13.333 100 50.172 100 50.172"/><circle fill="#FFF" stroke="#000" stroke-miterlimit="10" cx="120.57" cy="132.412" r="4"/><circle cx="220.47" cy="182.512" r="4"/><path fill="none" stroke="#000" stroke-width="2" stroke-miterlimit="10" d="M220.333 232.667S299.5 233.5 334.5 191.5c30.274-36.329 33.08-129.393 33.285-153.861"/><path d="m371.451 40.466-3.696-1.589-3.71 1.557 3.741-8.762z"/><circle fill="#FFF" stroke="#000" stroke-miterlimit="10" cx="220.57" cy="232.512" r="4"/><path fill="none" stroke="#000" stroke-width="2" stroke-miterlimit="10" d="M373.706 326.209c1.223-32.117 11.511-181.664 96.815-143.697"/><path d="m377.517 323.513-3.75 1.457-3.653-1.687 3.429 8.889z"/><g fill="none" stroke="#000" stroke-miterlimit="10"><path d="M370.5 32v3"/><path stroke-dasharray="6,6" d="M370.5 41v286"/><path d="M370.5 330v3"/></g><text transform="translate(94.26 119.63)" font-family="'Concourse T3'" font-size="24">hole</text><text transform="translate(201.109 214.196)" font-family="'Concourse T3'" font-size="24">jump</text><text transform="rotate(-90 302.617 -87.28)" font-family="'Concourse T3'" font-size="24">asymptote</text></svg>
